public/shapes/items/121.svg

<?xml version="1.0" encoding="UTF-8"?>
<svg width="121.05px" height="178.7px" version="1.1" xmlns="http://www.w3.org/2000/svg" xmlns:cc="http://creativecommons.org/ns#" xmlns:dc="http://purl.org/dc/elements/1.1/" xmlns:rdf="http://www.w3.org/1999/02/22-rdf-syntax-ns#">
 <metadata>
  <rdf:RDF>
   <cc:Work rdf:about="">
    <dc:format>image/svg+xml</dc:format>
    <dc:type rdf:resource="http://purl.org/dc/dcmitype/StillImage"/>
    <dc:title/>
   </cc:Work>
  </rdf:RDF>
 </metadata>
 <g fill="#fff">
  <ellipse cx="82.357" cy="82.06" rx="18.582" ry="19.474" stroke-width=".78801"/>
  <g stroke-width=".83396">
   <ellipse cx="49.503" cy="85.479" rx="20.812" ry="19.474"/>
   <ellipse cx="22.001" cy="68.234" rx="20.812" ry="19.474"/>
   <ellipse cx="34.192" cy="48.017" rx="20.812" ry="19.474"/>
   <ellipse cx="37.611" cy="22.299" rx="20.812" ry="19.474"/>
   <ellipse cx="69.126" cy="27.353" rx="20.812" ry="19.474"/>
   <ellipse cx="56.342" cy="57.085" rx="20.812" ry="19.474"/>
  </g>
  <ellipse cx="92.689" cy="47.571" rx="26.833" ry="26.907" stroke-width="1.1131"/>
 </g>
 <g transform="translate(60.55 89.35)" fill-rule="evenodd">
  <path d="m60.5-41.9q0 9.25-5.65 16.75-5.6 7.4-14.45 10l0.15 0.35 0.3 0.45h-0.05q1.75 4 1.75 7.85 0 8.4-5.95 14.35t-14.3 5.95q-7.7 0-13.7-5.5l-0.7 0.95 5.6 80.1h-26.65l3.85-71-1.25 0.05q-8.6 0-15.15-5.7-6.45-5.6-7.75-14.1-3.8 1.35-6.85 1.35-8.35 0-14.3-5.95t-5.95-14.35q0-6.05 3.35-11.1 3.35-5 8.9-7.4l-0.45-3.55q0-3.6 1.65-6.85 1.6-3.15 4.45-5.4-3.05-5.4-3.05-11.35 0-9.65 6.85-16.5t16.5-6.85q5.75 0 10.9 2.75 5.05 2.7 8.3 7.45 5.65-4.55 12.6-4.55 6.7 0 12 3.95 5.3 3.9 7.25 10.25l3.85-0.35q11.6 0 19.75 8.2 8.2 8.2 8.2 19.75m-22.3 24.25q8.35-1.95 13.8-8.8t5.45-15.45q0-10.3-7.3-17.55-7.3-7.3-17.6-7.3l-4.6 0.4-1.45 0.3-0.35-1.45q-1.4-5.8-6.05-9.45t-10.65-3.65q-3.3 0-6.35 1.25-3.1 1.25-5.5 3.55l-1.45 1.35-0.05-0.1q-4.45 4.95-5.95 10.25 0.05-1.85 0.65-4.35 1.15-4.95 3.95-8.15-2.8-4.4-7.35-6.9-4.55-2.55-9.75-2.55-8.35 0-14.3 5.95t-5.95 14.3q0 5.95 3.2 10.9l0.8 1.3-1.25 0.8q-2.75 1.75-4.3 4.55-1.55 2.85-1.55 6.05 0 1.75 0.55 3.55 3.45 0.2 6.5 1.6 1.55 0.65 2.4 1.3-4.6-1.7-8.35-1.2l0.05 0.1-1.45 0.5q-5.15 1.85-8.3 6.3-3.2 4.45-3.2 9.9 0 7.1 5.05 12.15t12.15 5.05q3.9 0 7.4-1.65l2-1 0.15 2.25q0.55 7.95 6.4 13.4t13.8 5.45q5.4 0 10.15-2.7 4.7-2.7 7.4-7.4l1.05-1.85 1.45 1.6q2.45 2.75 5.8 4.25t7 1.5q7.15 0 12.15-5.05 5.05-5 5.05-12.15 0-4.8-2.5-8.8l-0.75-1.25q-4-5.1-10.25-6.9l4.15 1q4.8 1.6 8.05 4.8"/>
  <path d="m-18.9-23.65q-2.7-2.1-4-5.1-2.55-5.95 4.55-10.3l-1 1.2-1.65 3.35q-1.85 5.55 2.1 10.85"/>
  <path d="m19.4-50.7q8.15-1.5 8.75 3.1 0.3 2.25-1.05 4.85 1-4.95-3.25-6.95l-4.45-1"/>
 </g>
</svg>

<?xml version="1.0" encoding="UTF-8" standalone="no"?>
<svg xmlns:xlink="http://www.w3.org/1999/xlink" height="178.7px" width="121.05px" xmlns="http://www.w3.org/2000/svg">
  <g transform="matrix(1.0, 0.0, 0.0, 1.0, 60.55, 89.35)">
    <path d="M60.5 -41.9 Q60.5 -32.65 54.85 -25.15 49.25 -17.75 40.4 -15.15 L40.55 -14.8 40.85 -14.35 40.8 -14.35 Q42.55 -10.35 42.55 -6.5 42.55 1.9 36.6 7.85 30.65 13.8 22.3 13.8 14.6 13.8 8.6 8.3 L7.9 9.25 13.5 89.35 -13.15 89.35 -9.3 18.35 -10.55 18.4 Q-19.15 18.4 -25.7 12.7 -32.15 7.1 -33.45 -1.4 -37.25 -0.05 -40.3 -0.05 -48.65 -0.05 -54.6 -6.0 -60.55 -11.95 -60.55 -20.35 -60.55 -26.4 -57.2 -31.45 -53.85 -36.45 -48.3 -38.85 L-48.75 -42.4 Q-48.75 -46.0 -47.1 -49.25 -45.5 -52.4 -42.65 -54.65 -45.7 -60.05 -45.7 -66.0 -45.7 -75.65 -38.85 -82.5 -32.0 -89.35 -22.35 -89.35 -16.6 -89.35 -11.45 -86.6 -6.4 -83.9 -3.15 -79.15 2.5 -83.7 9.45 -83.7 16.15 -83.7 21.45 -79.75 26.75 -75.85 28.7 -69.5 L32.55 -69.85 Q44.15 -69.85 52.3 -61.65 60.5 -53.45 60.5 -41.9 M38.2 -17.65 Q46.55 -19.6 52.0 -26.45 57.45 -33.3 57.45 -41.9 57.45 -52.2 50.15 -59.45 42.85 -66.75 32.55 -66.75 L27.95 -66.35 26.5 -66.05 26.15 -67.5 Q24.75 -73.3 20.1 -76.95 15.45 -80.6 9.45 -80.6 6.15 -80.6 3.1 -79.35 0.0 -78.1 -2.4 -75.8 L-3.85 -74.45 -3.9 -74.55 Q-8.35 -69.6 -9.85 -64.3 -9.8 -66.15 -9.2 -68.65 -8.05 -73.6 -5.25 -76.8 -8.05 -81.2 -12.6 -83.7 -17.15 -86.25 -22.35 -86.25 -30.7 -86.25 -36.65 -80.3 -42.6 -74.35 -42.6 -66.0 -42.6 -60.05 -39.4 -55.1 L-38.6 -53.8 -39.85 -53.0 Q-42.6 -51.25 -44.15 -48.45 -45.7 -45.6 -45.7 -42.4 -45.7 -40.65 -45.15 -38.85 -41.7 -38.65 -38.65 -37.25 -37.1 -36.6 -36.25 -35.95 -40.85 -37.65 -44.6 -37.15 L-44.55 -37.05 -46.0 -36.55 Q-51.15 -34.7 -54.3 -30.25 -57.5 -25.8 -57.5 -20.35 -57.5 -13.25 -52.45 -8.2 -47.4 -3.15 -40.3 -3.15 -36.4 -3.15 -32.9 -4.8 L-30.9 -5.8 -30.75 -3.55 Q-30.2 4.4 -24.35 9.85 -18.5 15.3 -10.55 15.3 -5.15 15.3 -0.4 12.6 4.3 9.9 7.0 5.2 L8.05 3.35 9.5 4.95 Q11.95 7.7 15.3 9.2 18.65 10.7 22.3 10.7 29.45 10.7 34.45 5.65 39.5 0.65 39.5 -6.5 39.5 -11.3 37.0 -15.3 L36.25 -16.55 Q32.25 -21.65 26.0 -23.45 L30.15 -22.45 Q34.95 -20.85 38.2 -17.65" fill="#000000" fill-rule="evenodd" stroke="none"/>
    <path d="M-18.9 -23.65 Q-21.6 -25.75 -22.9 -28.75 -25.45 -34.7 -18.35 -39.05 L-19.35 -37.85 -21.0 -34.5 Q-22.85 -28.95 -18.9 -23.65" fill="#000000" fill-rule="evenodd" stroke="none"/>
    <path d="M19.4 -50.7 Q27.55 -52.2 28.15 -47.6 28.45 -45.35 27.1 -42.75 28.1 -47.7 23.85 -49.7 L19.4 -50.7" fill="#000000" fill-rule="evenodd" stroke="none"/>
  </g>
</svg>
